packages/match-logos/color/svg/ibotta.svg

<svg fill="none" height="34" viewBox="0 0 121 34" width="121" xmlns="http://www.w3.org/2000/svg" xmlns:xlink="http://www.w3.org/1999/xlink"><clipPath id="a"><path d="m0 0h120.872v34h-120.872z"/></clipPath><g clip-path="url(#a)" fill="#e84678"><path d="m.128021 10.7849h7.470919l-.58694 22.3456h-6.720074z"/><path d="m18.8537.0951843-.1561 10.9020157c1.8638-.6099 3.5866-.9153 5.1684-.9163 2.0267-.0082 4.0025.6341 5.6368 1.8326 3.0398 2.1781 4.5591 5.3968 4.5581 9.6563 0 3.916-1.3154 6.9943-3.9462 9.2348-2.3019 1.9773-5.106 2.9659-8.4122 2.9659-2.7545-.0029-5.463-.7066-7.8705-2.0449-.7526-.4118-1.464-.8948-2.1245-1.4424.2986-1.127.4396-2.5288.423-4.2053l-.2779-20.77056c-.0128-1.3537-.1387-2.70396-.3762-4.03673zm-.3122 17.1709157.0468 9.5392c1.0048.6392 2.17.9808 3.3608.985 1.9263 0 3.4353-.7591 4.5269-2.2775.7347-1.0177 1.1026-2.2707 1.1036-3.7588 0-1.8326-.564-3.2266-1.6921-4.1819-1.027-.8756-2.3393-1.3443-3.6886-1.3175-1.2843.0185-2.542.3685-3.6512 1.0162z"/><path d="m48.1286 9.87014c2.1832-.00315 4.3207.62516 6.155 1.80916 3.6985 2.3499 5.5467 5.7414 5.5446 10.1746.0003 1.8125-.4276 3.5995-1.2488 5.2153-1.0941 2.2392-2.8689 4.0746-5.0701 5.2433-1.8099.9827-3.8395 1.4903-5.899 1.4752-3.6808 0-6.6467-1.3237-8.8977-3.9712-1.8211-2.1448-2.7312-4.6897-2.7301-7.6348 0-3.5383 1.2841-6.538 3.8525-8.9991 2.3186-2.2094 5.0831-3.3135 8.2936-3.31246zm-.0235 6.15496c-1.7691 0-3.1865.7129-4.2521 2.1386-.8773 1.2113-1.3159 2.4934-1.3159 3.8463-.0151 1.4795.5208 2.9117 1.5032 4.018 1.0178 1.1749 2.2317 1.7618 3.6418 1.7608 1.152-.0022 2.2665-.4095 3.1485-1.1505 1.5808-1.2488 2.3717-2.8696 2.3728-4.8625 0-1.8482-.6499-3.3759-1.9497-4.583-.8461-.7774-1.8956-1.1666-3.1486-1.1677z"/><path d="m76.2764 12.3131-.025 5.4822-5.5446-.0468-.1405 5.3074-.0234 1.0349c0 1.0646.1644 1.8399.4932 2.3259.5474.7836 1.2603 1.1754 2.1386 1.1754.6733 0 1.5423-.2508 2.6069-.7524l1.717 4.4411c-2.0199 1.4871-4.0325 2.2306-6.0379 2.2306-2.0053 0-3.736-.6655-5.1919-1.9965-1.4257-1.3195-2.1297-2.8961-2.112-4.7298l.0234-9.1615-3.0064-.0936.0171-5.3542h3.0783l.0234-3.28905c.0292-1.75455-.026-3.01584-.1654-3.78384l6.7435.07024c0 .34498-.0235.90225-.0703 1.6687-.0156.26693-.0328.86167-.0484 1.78578l-.0936 3.59027z"/><path d="m93.2397 12.3131-.0234 5.4822-5.5447-.0468-.1405 5.3074-.0234 1.0349c0 1.0646.1644 1.8399.4933 2.3259.5463.7836 1.2587 1.1754 2.137 1.1754.6723 0 1.5417-.2508 2.6084-.7524l1.7171 4.4411c-2.021 1.4871-4.0336 2.2306-6.0379 2.2306-2.022 0-3.7532-.6655-5.1934-1.9965-1.4403-1.331-2.1454-2.9055-2.1152-4.7236l.0234-9.1614-3.0064-.0937.0218-5.3604h3.0783l.0234-3.28905c.0312-1.75455-.0239-3.01584-.1655-3.78384l6.7435.07024c0 .34498-.0234.90225-.0702 1.6687-.0156.26641-.0312.86167-.0469 1.78578l-.0936 3.59027z"/><path d="m96.7816 11.8432c3.2264-1.1738 6.2094-1.7613 8.9504-1.7623 2.741-.0011 5.031.6233 6.869 1.8731 1.503 1.0334 2.349 2.5689 2.536 4.6065.033.3201.048.6415.047.9632l.047 7.4006c.031 3.1803.548 5.6779 1.552 7.4928l-6.134 1.5751-.869-2.3041c-1.581 1.3799-3.515 2.0694-5.804 2.0683-2.757 0-4.9336-1.026-6.531-3.0782-1.2363-1.5974-1.8545-3.3359-1.8545-5.2153 0-2.3186.8846-4.222 2.6537-5.7101 1.6131-1.3623 3.5868-2.0434 5.9208-2.0434 1.519 0 3.149.3757 4.888 1.1271-.298-2.4123-1.755-3.6184-4.371-3.6184-2.145.0196-4.264.4758-6.227 1.3409zm8.6934 10.1964c-.475-.0125-.947.0801-1.381.2712-.435.1911-.822.4759-1.134.834-.624.6879-.937 1.4314-.937 2.2307 0 .9262.384 1.7644 1.152 2.5147.308.3051.674.5452 1.076.7061s.833.2393 1.266.2305c.498.0089.992-.0916 1.446-.2944.455-.2029.86-.5031 1.186-.8794.518-.5624.798-1.3038.78-2.0684 0-1.0489-.336-1.9028-1.01-2.5615-.319-.3191-.7-.5705-1.119-.7395-.419-.1689-.867-.2519-1.319-.244z"/><path d="m7.60672 8.30292h-.44176c-5.50562 0-7.16496-3.07047-7.16496-3.07047v-5.23245s1.8529 1.77329 7.05257 1.77329h.55415z"/><path d="m120.173 11.6809c-.333.3353-.758.5639-1.222.6567-.463.0927-.944.0454-1.38-.1359-.437-.1813-.809-.4884-1.071-.8823-.261-.3938-.399-.8565-.396-1.3291 0-.39218.098-.77811.283-1.12362.186-.34552.454-.63995.78-.85723.327-.21728.702-.3507 1.092-.38845.391-.03775.784.02134 1.146.17203s.682.38833.93.69189.418.66366.494 1.04842.056.78226-.059 1.15746c-.114.3751-.319.7162-.597.9932zm-3.141-3.14388c-.193.18887-.346.41516-.448.66503-.103.24988-.154.51809-.15.78825-.004.2713.046.5408.148.7922.102.2513.255.4794.447.6705.191.1915.417.3435.667.4472.249.1037.516.1571.786.1571.271 0 .538-.0534.787-.1571.25-.1037.476-.2557.667-.4472.383-.3885.598-.9123.598-1.45801s-.215-1.06947-.598-1.45797c-.19-.19143-.417-.34335-.666-.44703-.249-.10367-.516-.15704-.786-.15704s-.537.05337-.786.15704c-.249.10368-.475.2556-.666.44703zm1.405.13268c.242-.01256.485.01972.715.09522.13.05218.24.14492.313.26444s.106.25945.093.39899c.007.10111-.013.20229-.058.29312-.045.09082-.113.168-.198.22357-.116.06816-.244.11176-.378.12796.089.0081.175.0351.253.0793.077.0441.145.1044.197.1767.088.1175.137.2592.142.4059v.192.1936c0 .0467.008.0931.023.1373l.016.0328h-.433v-.0265s0-.0188 0-.0297l-.009-.0843v-.206c0-.3029-.083-.5027-.247-.5995-.162-.0683-.339-.0971-.515-.0842h-.363v1.0302h-.461v-2.6209zm.498.41367c-.175-.07733-.367-.11106-.559-.09835h-.395v.94909h.419c.149.00693.298-.01263.44-.05776.083-.03035.153-.08687.201-.16098.047-.0741.07-.16173.063-.24956.01-.07312 0-.14767-.03-.21524s-.078-.12548-.139-.1672z"/></g></svg>

<svg width="121" height="34" viewBox="0 0 121 34" fill="none" xmlns="http://www.w3.org/2000/svg">
<g clip-path="url(#clip0)">
<path d="M0.128021 10.7849H7.59894L7.012 33.1305H0.291926L0.128021 10.7849Z" fill="#E84678"/>
<path d="M18.8537 0.0951843L18.6976 10.9972C20.5614 10.3873 22.2842 10.0819 23.866 10.0809C25.8927 10.0727 27.8685 10.715 29.5028 11.9135C32.5426 14.0916 34.0619 17.3103 34.0609 21.5698C34.0609 25.4858 32.7455 28.5641 30.1147 30.8046C27.8128 32.7819 25.0087 33.7705 21.7025 33.7705C18.948 33.7676 16.2395 33.0639 13.832 31.7256C13.0794 31.3138 12.368 30.8308 11.7075 30.2832C12.0061 29.1562 12.1471 27.7544 12.1305 26.0779L11.8526 5.30734C11.8398 3.95364 11.7139 2.60338 11.4764 1.27061L18.8537 0.0951843ZM18.5415 17.2661L18.5883 26.8053C19.5931 27.4445 20.7583 27.7861 21.9491 27.7903C23.8754 27.7903 25.3844 27.0312 26.476 25.5128C27.2107 24.4951 27.5786 23.2421 27.5796 21.754C27.5796 19.9214 27.0156 18.5274 25.8875 17.5721C24.8605 16.6965 23.5482 16.2278 22.1989 16.2546C20.9146 16.2731 19.6569 16.6231 18.5477 17.2708L18.5415 17.2661Z" fill="#E84678"/>
<path d="M48.1286 9.87016C50.3118 9.867 52.4493 10.4953 54.2836 11.6794C57.9821 14.0292 59.8303 17.4207 59.8282 21.8539C59.8285 23.6664 59.4006 25.4534 58.5794 27.0692C57.4853 29.3084 55.7105 31.1438 53.5093 32.3126C51.6994 33.2953 49.6698 33.8028 47.6103 33.7877C43.9295 33.7877 40.9636 32.464 38.7126 29.8165C36.8915 27.6717 35.9814 25.1268 35.9825 22.1817C35.9825 18.6435 37.2666 15.6438 39.835 13.1826C42.1536 10.9733 44.9181 9.86912 48.1286 9.87016ZM48.1051 16.0252C46.336 16.0252 44.9186 16.738 43.853 18.1637C42.9757 19.375 42.5371 20.6571 42.5371 22.01C42.522 23.4895 43.0579 24.9217 44.0403 26.028C45.0581 27.2029 46.272 27.7898 47.6821 27.7888C48.8341 27.7866 49.9486 27.3794 50.8306 26.6383C52.4114 25.3896 53.2023 23.7687 53.2034 21.7759C53.2034 19.9276 52.5535 18.3999 51.2537 17.1928C50.4076 16.4154 49.3581 16.0262 48.1051 16.0252Z" fill="#E84678"/>
<path d="M76.2764 12.3131L76.2514 17.7953L70.7068 17.7485L70.5663 23.0559L70.5429 24.0908C70.5429 25.1554 70.7073 25.9307 71.0361 26.4167C71.5835 27.2003 72.2964 27.5921 73.1747 27.5921C73.848 27.5921 74.717 27.3413 75.7816 26.8397L77.4986 31.2808C75.4787 32.7679 73.4661 33.5114 71.4607 33.5114C69.4554 33.5114 67.7247 32.8459 66.2688 31.5149C64.8431 30.1954 64.1391 28.6188 64.1568 26.7851L64.1802 17.6236L61.1738 17.53L61.1909 12.1758H64.2692L64.2926 8.88675C64.3218 7.1322 64.2666 5.87091 64.1272 5.10291L70.8707 5.17315C70.8707 5.51813 70.8472 6.0754 70.8004 6.84185C70.7848 7.10878 70.7676 7.70352 70.752 8.62763L70.6584 12.2179L76.2764 12.3131Z" fill="#E84678"/>
<path d="M93.2397 12.3131L93.2163 17.7953L87.6716 17.7485L87.5311 23.0559L87.5077 24.0908C87.5077 25.1554 87.6721 25.9307 88.001 26.4167C88.5473 27.2003 89.2597 27.5921 90.138 27.5921C90.8103 27.5921 91.6797 27.3413 92.7464 26.8397L94.4635 31.2808C92.4425 32.7679 90.4299 33.5114 88.4256 33.5114C86.4036 33.5114 84.6724 32.8459 83.2322 31.5149C81.7919 30.1839 81.0868 28.6094 81.117 26.7913L81.1404 17.6299L78.134 17.5362L78.1558 12.1758H81.2341L81.2575 8.88675C81.2887 7.1322 81.2336 5.87091 81.092 5.10291L87.8355 5.17315C87.8355 5.51813 87.8121 6.0754 87.7653 6.84185C87.7497 7.10826 87.7341 7.70352 87.7184 8.62763L87.6248 12.2179L93.2397 12.3131Z" fill="#E84678"/>
<path d="M96.7816 11.8432C100.008 10.6693 102.991 10.0819 105.732 10.0808C108.473 10.0798 110.763 10.7042 112.601 11.954C114.104 12.9874 114.95 14.5229 115.137 16.5605C115.17 16.8805 115.185 17.202 115.184 17.5237L115.231 24.9243C115.262 28.1046 115.779 30.6022 116.783 32.4171L110.649 33.9921L109.78 31.6881C108.199 33.068 106.265 33.7575 103.976 33.7564C101.219 33.7564 99.0424 32.7303 97.445 30.6782C96.2087 29.0807 95.5905 27.3423 95.5905 25.4629C95.5905 23.1443 96.4751 21.2409 98.2442 19.7528C99.8573 18.3905 101.831 17.7094 104.165 17.7094C105.684 17.7094 107.314 18.0851 109.053 18.8365C108.755 16.4242 107.298 15.2181 104.682 15.2181C102.537 15.2377 100.418 15.6939 98.455 16.559L96.7816 11.8432ZM105.475 22.0396C105 22.0271 104.528 22.1197 104.094 22.3108C103.659 22.5018 103.272 22.7866 102.96 23.1448C102.336 23.8327 102.023 24.5762 102.023 25.3755C102.023 26.3016 102.407 27.1399 103.175 27.8902C103.483 28.1953 103.849 28.4354 104.251 28.5962C104.653 28.7571 105.084 28.8356 105.517 28.8268C106.015 28.8357 106.509 28.7352 106.963 28.5324C107.418 28.3295 107.823 28.0293 108.149 27.6529C108.667 27.0906 108.947 26.3491 108.929 25.5846C108.929 24.5356 108.593 23.6818 107.919 23.023C107.6 22.704 107.219 22.4526 106.8 22.2836C106.381 22.1147 105.933 22.0317 105.481 22.0396H105.475Z" fill="#E84678"/>
<path d="M7.60672 8.30292H7.16496C1.65934 8.30292 0 5.23245 0 5.23245V0C0 0 1.8529 1.77329 7.05257 1.77329H7.60672V8.30292Z" fill="#E84678"/>
<path d="M120.173 11.6809C119.84 12.0162 119.415 12.2448 118.951 12.3376C118.488 12.4303 118.007 12.383 117.571 12.2017C117.134 12.0204 116.762 11.7133 116.5 11.3194C116.239 10.9256 116.101 10.4629 116.104 9.9903C116.104 9.59812 116.202 9.21219 116.387 8.86668C116.573 8.52116 116.841 8.22673 117.167 8.00945C117.494 7.79217 117.869 7.65875 118.259 7.621C118.65 7.58325 119.043 7.64234 119.405 7.79303C119.767 7.94372 120.087 8.18136 120.335 8.48492C120.583 8.78848 120.753 9.14858 120.829 9.53334C120.905 9.9181 120.885 10.3156 120.77 10.6908C120.656 11.0659 120.451 11.407 120.173 11.684V11.6809ZM117.032 8.53702C116.839 8.72589 116.686 8.95218 116.584 9.20205C116.481 9.45193 116.43 9.72014 116.434 9.9903C116.43 10.2616 116.48 10.5311 116.582 10.7825C116.684 11.0338 116.837 11.2619 117.029 11.453C117.22 11.6445 117.446 11.7965 117.696 11.9002C117.945 12.0039 118.212 12.0573 118.482 12.0573C118.753 12.0573 119.02 12.0039 119.269 11.9002C119.519 11.7965 119.745 11.6445 119.936 11.453C120.319 11.0645 120.534 10.5407 120.534 9.99499C120.534 9.44928 120.319 8.92552 119.936 8.53702C119.746 8.34559 119.519 8.19367 119.27 8.08999C119.021 7.98632 118.754 7.93295 118.484 7.93295C118.214 7.93295 117.947 7.98632 117.698 8.08999C117.449 8.19367 117.223 8.34559 117.032 8.53702ZM118.437 8.6697C118.679 8.65714 118.922 8.68942 119.152 8.76492C119.282 8.8171 119.392 8.90984 119.465 9.02936C119.538 9.14888 119.571 9.28881 119.558 9.42835C119.565 9.52946 119.545 9.63064 119.5 9.72147C119.455 9.81229 119.387 9.88947 119.302 9.94504C119.186 10.0132 119.058 10.0568 118.924 10.073C119.013 10.0811 119.099 10.1081 119.177 10.1523C119.254 10.1964 119.322 10.2567 119.374 10.329C119.462 10.4465 119.511 10.5882 119.516 10.7349V10.9269C119.516 10.9878 119.516 11.0518 119.516 11.1205C119.516 11.1672 119.524 11.2136 119.539 11.2578L119.555 11.2906H119.122V11.2641C119.122 11.2641 119.122 11.2453 119.122 11.2344L119.113 11.1501V10.9441C119.113 10.6412 119.03 10.4414 118.866 10.3446C118.704 10.2763 118.527 10.2475 118.351 10.2604H117.988V11.2906H117.527V8.6697H118.437ZM118.935 9.08337C118.76 9.00604 118.568 8.97231 118.376 8.98502H117.981V9.93411H118.4C118.549 9.94104 118.698 9.92148 118.84 9.87635C118.923 9.846 118.993 9.78948 119.041 9.71537C119.088 9.64127 119.111 9.55364 119.104 9.46581C119.114 9.39269 119.104 9.31814 119.074 9.25057C119.044 9.183 118.996 9.12509 118.935 9.08337Z" fill="#E84678"/>
</g>
<defs>
<clipPath id="clip0">
<rect width="120.872" height="34" fill="white"/>
</clipPath>
</defs>
</svg>
